public/footer/fb.svg

<svg width="26" height="26" viewBox="0 0 26 26" fill="none" xmlns="http://www.w3.org/2000/svg">
<path d="M16.9881 4.5H14.2711C12.6587 4.5 10.8653 5.17811 10.8653 7.51522C10.8732 8.32956 10.8653 9.10945 10.8653 9.98717H9V12.9553H10.923V21.5H14.4567V12.8989H16.789L17 9.97885H14.3958C14.3958 9.97885 14.4016 8.67988 14.3958 8.30265C14.3958 7.37908 15.3568 7.43197 15.4146 7.43197C15.8719 7.43197 16.7612 7.4333 16.9894 7.43197V4.5H16.9881Z" fill="#A6A6A6"/>
</svg>

<svg xmlns="http://www.w3.org/2000/svg" width="26" height="26" fill="none"><path fill="#A6A6A6" d="M16.988 4.5h-2.717c-1.612 0-3.406.678-3.406 3.015.008.815 0 1.594 0 2.472H9v2.968h1.923V21.5h3.534v-8.601h2.332L17 9.979h-2.604s.006-1.3 0-1.676c0-.924.96-.871 1.019-.871h1.574V4.5"/></svg>
